flaticon/security/paper-shredder.svg

<svg xmlns="http://www.w3.org/2000/svg" width="32" height="32" viewBox="0 0 24 24">
    <path d="M 21.609375 10.527344 L 20 10.527344 L 20 0 L 4 0 L 4 10.527344 L 2.390625 10.527344 C 1.421875 10.527344 0.632812 11.316406 0.632812 12.289062 L 0.632812 15.503906 C 0.632812 16.472656 1.421875 17.261719 2.390625 17.261719 L 21.609375 17.261719 C 22.578125 17.261719 23.367188 16.472656 23.367188 15.503906 L 23.367188 12.285156 C 23.367188 11.316406 22.578125 10.527344 21.609375 10.527344 Z M 4.84375 0.84375 L 19.15625 0.84375 L 19.15625 10.527344 L 4.84375 10.527344 Z M 22.527344 15.503906 C 22.527344 16.007812 22.113281 16.421875 21.609375 16.421875 L 2.390625 16.421875 C 1.886719 16.421875 1.472656 16.007812 1.472656 15.503906 L 1.472656 12.285156 C 1.472656 11.78125 1.886719 11.367188 2.390625 11.367188 L 21.609375 11.367188 C 22.113281 11.367188 22.527344 11.78125 22.527344 12.289062 Z M 22.527344 15.503906"/>
    <path d="M20 12.210938C19.070312 12.210938 18.316406 12.964844 18.316406 13.894531 18.316406 14.824219 19.070312 15.578125 20 15.578125 20.929688 15.578125 21.683594 14.824219 21.683594 13.894531 21.683594 12.964844 20.929688 12.210938 20 12.210938zM20 14.738281C19.535156 14.738281 19.15625 14.359375 19.15625 13.894531 19.15625 13.429688 19.535156 13.050781 20 13.050781 20.464844 13.050781 20.84375 13.429688 20.84375 13.894531 20.84375 14.359375 20.464844 14.738281 20 14.738281zM15.789062 12.210938C14.859375 12.210938 14.105469 12.964844 14.105469 13.894531 14.105469 14.824219 14.859375 15.578125 15.789062 15.578125 16.71875 15.578125 17.472656 14.824219 17.472656 13.894531 17.472656 12.964844 16.71875 12.210938 15.789062 12.210938zM15.789062 14.738281C15.324219 14.738281 14.949219 14.359375 14.949219 13.894531 14.949219 13.429688 15.324219 13.050781 15.789062 13.050781 16.253906 13.050781 16.632812 13.429688 16.632812 13.894531 16.632812 14.359375 16.253906 14.738281 15.789062 14.738281zM4 12.210938C3.070312 12.210938 2.316406 12.964844 2.316406 13.894531 2.316406 14.824219 3.070312 15.578125 4 15.578125 4.929688 15.578125 5.683594 14.824219 5.683594 13.894531 5.683594 12.964844 4.929688 12.210938 4 12.210938zM4 14.738281C3.535156 14.738281 3.15625 14.359375 3.15625 13.894531 3.15625 13.429688 3.535156 13.050781 4 13.050781 4.464844 13.050781 4.84375 13.429688 4.84375 13.894531 4.84375 14.359375 4.464844 14.738281 4 14.738281zM13.5625 6.195312C13.636719 6.113281 13.683594 6.003906 13.683594 5.894531 13.683594 5.785156 13.636719 5.675781 13.5625 5.597656 13.40625 5.441406 13.121094 5.441406 12.964844 5.597656 12.886719 5.675781 12.84375 5.785156 12.84375 5.894531 12.84375 6.003906 12.886719 6.113281 12.964844 6.195312 13.042969 6.269531 13.148438 6.316406 13.261719 6.316406 13.371094 6.316406 13.480469 6.269531 13.5625 6.195312zM14.105469 5.894531C14.105469 6.128906 14.292969 6.316406 14.527344 6.316406L17.050781 6.316406C17.285156 6.316406 17.472656 6.128906 17.472656 5.894531 17.472656 5.660156 17.285156 5.472656 17.050781 5.472656L14.527344 5.472656C14.292969 5.472656 14.105469 5.660156 14.105469 5.894531zM15.789062 8L13.683594 8C13.453125 8 13.261719 8.1875 13.261719 8.421875 13.261719 8.652344 13.453125 8.84375 13.683594 8.84375L15.789062 8.84375C16.023438 8.84375 16.210938 8.652344 16.210938 8.421875 16.210938 8.1875 16.023438 8 15.789062 8zM17.175781 8.121094C17.097656 8.203125 17.050781 8.308594 17.050781 8.421875 17.050781 8.53125 17.097656 8.640625 17.175781 8.71875 17.253906 8.796875 17.363281 8.84375 17.472656 8.84375 17.582031 8.84375 17.691406 8.796875 17.773438 8.71875 17.847656 8.640625 17.894531 8.53125 17.894531 8.421875 17.894531 8.308594 17.847656 8.203125 17.773438 8.121094 17.613281 7.964844 17.332031 7.964844 17.175781 8.121094zM6.949219 6.316406L11.578125 6.316406C11.8125 6.316406 12 6.128906 12 5.894531 12 5.660156 11.8125 5.472656 11.578125 5.472656L6.949219 5.472656C6.714844 5.472656 6.527344 5.660156 6.527344 5.894531 6.527344 6.128906 6.714844 6.316406 6.949219 6.316406zM8.210938 8L6.949219 8C6.714844 8 6.527344 8.1875 6.527344 8.421875 6.527344 8.652344 6.714844 8.84375 6.949219 8.84375L8.210938 8.84375C8.445312 8.84375 8.632812 8.652344 8.632812 8.421875 8.632812 8.1875 8.445312 8 8.210938 8zM12 8L9.894531 8C9.660156 8 9.472656 8.1875 9.472656 8.421875 9.472656 8.652344 9.660156 8.84375 9.894531 8.84375L12 8.84375C12.234375 8.84375 12.421875 8.652344 12.421875 8.421875 12.421875 8.1875 12.234375 8 12 8zM8.632812 3.789062L10.738281 3.789062C10.96875 3.789062 11.15625 3.601562 11.15625 3.367188 11.15625 3.136719 10.96875 2.949219 10.738281 2.949219L8.632812 2.949219C8.398438 2.949219 8.210938 3.136719 8.210938 3.367188 8.210938 3.601562 8.398438 3.789062 8.632812 3.789062zM6.949219 3.789062C7.058594 3.789062 7.167969 3.742188 7.246094 3.667969 7.320312 3.585938 7.367188 3.476562 7.367188 3.367188 7.367188 3.257812 7.320312 3.148438 7.246094 3.070312 7.089844 2.914062 6.808594 2.914062 6.648438 3.070312 6.570312 3.148438 6.527344 3.257812 6.527344 3.367188 6.527344 3.480469 6.570312 3.585938 6.648438 3.667969 6.726562 3.742188 6.839844 3.789062 6.949219 3.789062zM17.472656 2.949219L16.210938 2.949219C15.976562 2.949219 15.789062 3.136719 15.789062 3.367188 15.789062 3.601562 15.976562 3.789062 16.210938 3.789062L17.472656 3.789062C17.707031 3.789062 17.894531 3.601562 17.894531 3.367188 17.894531 3.136719 17.707031 2.949219 17.472656 2.949219zM14.949219 3.367188C14.949219 3.136719 14.757812 2.949219 14.527344 2.949219L12.421875 2.949219C12.1875 2.949219 12 3.136719 12 3.367188 12 3.601562 12.1875 3.789062 12.421875 3.789062L14.527344 3.789062C14.757812 3.789062 14.949219 3.601562 14.949219 3.367188zM4 18.105469L4.84375 18.105469 4.84375 24 4 24zM6.527344 18.105469L7.367188 18.105469 7.367188 24 6.527344 24zM9.050781 18.105469L9.894531 18.105469 9.894531 24 9.050781 24zM11.578125 18.105469L12.421875 18.105469 12.421875 24 11.578125 24zM14.105469 18.105469L14.949219 18.105469 14.949219 24 14.105469 24zM16.632812 18.105469L17.472656 18.105469 17.472656 24 16.632812 24zM19.15625 18.105469L20 18.105469 20 24 19.15625 24zM19.15625 18.105469"/>
</svg>

<svg xmlns="http://www.w3.org/2000/svg" width="32" height="32" viewBox="0 0 24 24">
    <path d="M21.61 10.527H20V0H4v10.527H2.39c-.968 0-1.757.79-1.757 1.762v3.215c0 .969.789 1.758 1.758 1.758h19.218a1.76 1.76 0 0 0 1.758-1.758v-3.219a1.76 1.76 0 0 0-1.758-1.758zM4.843.844h14.312v9.683H4.844zm17.683 14.66a.922.922 0 0 1-.918.918H2.391a.922.922 0 0 1-.918-.918v-3.219c0-.504.414-.918.918-.918h19.218c.504 0 .918.414.918.922zm0 0"/>
    <path d="M20 12.21a1.684 1.684 0 1 0 0 3.368 1.684 1.684 0 0 0 0-3.367zm0 2.528a.845.845 0 0 1-.844-.843c0-.465.38-.844.844-.844.465 0 .844.379.844.844a.845.845 0 0 1-.844.843zm0 0M15.79 12.21a1.684 1.684 0 1 0 0 3.368 1.684 1.684 0 0 0 0-3.367zm0 2.528a.842.842 0 0 1-.84-.843.842.842 0 1 1 1.683 0 .845.845 0 0 1-.844.843zm0 0M4 12.21a1.684 1.684 0 1 0 0 3.368 1.684 1.684 0 0 0 0-3.367zm0 2.528a.845.845 0 0 1-.844-.843c0-.465.38-.844.844-.844.465 0 .844.379.844.844a.845.845 0 0 1-.844.843zm0 0M13.563 6.195a.458.458 0 0 0 .12-.3.44.44 0 0 0-.12-.297.44.44 0 0 0-.598 0 .423.423 0 0 0-.121.297c0 .109.043.218.12.3a.433.433 0 0 0 .298.121c.11 0 .218-.046.3-.12zm0 0M14.105 5.895a.42.42 0 0 0 .422.421h2.524a.42.42 0 0 0 .422-.421.42.42 0 0 0-.422-.422h-2.524a.42.42 0 0 0-.422.422zm0 0M15.79 8h-2.106a.423.423 0 0 0 0 .844h2.105a.423.423 0 0 0 0-.844zm0 0M17.176 8.121a.436.436 0 0 0-.125.3.427.427 0 0 0 .422.423c.109 0 .218-.047.3-.125a.44.44 0 0 0 .122-.297.45.45 0 0 0-.122-.3.44.44 0 0 0-.597 0zm0 0M6.95 6.316h4.628A.42.42 0 0 0 12 5.895a.42.42 0 0 0-.422-.422H6.95a.42.42 0 0 0-.422.422.42.42 0 0 0 .422.421zm0 0M8.21 8H6.95a.423.423 0 0 0 0 .844h1.26a.423.423 0 0 0 0-.844zm0 0M12 8H9.895a.423.423 0 0 0 0 .844H12A.423.423 0 0 0 12 8zm0 0M8.633 3.79h2.105a.42.42 0 0 0 0-.84H8.633a.42.42 0 1 0 0 .84zm0 0M6.95 3.79a.44.44 0 0 0 .296-.122.458.458 0 0 0 .121-.3.44.44 0 0 0-.12-.298.44.44 0 0 0-.599 0 .432.432 0 0 0 0 .598.45.45 0 0 0 .301.121zm0 0M17.473 2.95H16.21a.42.42 0 1 0 0 .84h1.262a.42.42 0 1 0 0-.84zm0 0M14.95 3.367a.422.422 0 0 0-.423-.418h-2.105a.42.42 0 1 0 0 .84h2.105c.23 0 .422-.187.422-.422zm0 0M4 18.105h.844V24H4zm0 0M6.527 18.105h.84V24h-.84zm0 0M9.05 18.105h.845V24H9.05zm0 0M11.578 18.105h.844V24h-.844zm0 0M14.105 18.105h.844V24h-.844zm0 0M16.633 18.105h.84V24h-.84zm0 0M19.156 18.105H20V24h-.844zm0 0"/>
</svg>
